Origami/48x48/apps/contact-editor.svg

<svg width="48" height="48" version="1" xmlns="http://www.w3.org/2000/svg">
 <rect transform="matrix(0,-1,-1,0,0,0)" x="-44" y="-44" width="40" height="40" rx="20" ry="20" fill="#f5b35d"/>
 <path d="m24 4c-11.08 0-20 8.92-20 20 0 0.168-4e-3 0.333 0 0.5 0.2644-10.846 9.088-19.5 20-19.5s19.736 8.654 20 19.5c4e-3 -0.167 0-0.332 0-0.5 0-11.08-8.92-20-20-20z" fill="#fff" opacity=".2"/>
 <path d="m24 11c-3.3137 0-6 2.6864-6 6s2.6863 6 6 6 6-2.6864 6-6-2.6863-6-6-6zm0 14c-11 0.0068-11 8.001953-11 8.001953v1.998047h22v-1.998047s0-8.008253-11-8.001953z" style="fill:#4d4d4d"/>
 <path d="m4.0117 24.5c-0.0041 0.167-0.0117 0.332-0.0117 0.5 0 11.08 8.92 20 20 20s20-8.92 20-20c0-0.168-8e-3 -0.333-0.012-0.5-0.264 10.846-9.076 19.5-19.988 19.5s-19.724-8.654-19.988-19.5z" opacity=".2"/>
 <circle cx="36" cy="37" r="11" style="opacity:.2"/>
 <circle cx="36" cy="36" r="11" style="fill:#a559d6"/>
 <path d="m30 39.327v2.673h2.6728l6.7507-6.7507-2.6728-2.6728zm11.788-6.4337c0.28271-0.28271 0.28271-0.72818 0-1.0109l-1.6705-1.6705c-0.28271-0.28271-0.72818-0.28271-1.0109 0l-1.3964 1.405 2.6728 2.6728z" style="fill:#ffffff"/>
</svg>

<svg xmlns="http://www.w3.org/2000/svg" width="48" height="48" version="1">
 <rect fill="#f5b35d" width="40" height="40" x="-44" y="-44" rx="20" ry="20" transform="matrix(0,-1,-1,0,0,0)"/>
 <path fill="#fff" opacity=".2" d="m24 4c-11.08 0-20 8.92-20 20 0 0.168-0.004 0.333 0 0.5 0.2644-10.846 9.088-19.5 20-19.5s19.736 8.654 20 19.5c0.004-0.167 0-0.332 0-0.5 0-11.08-8.92-20-20-20z"/>
 <path style="fill:#4d4d4d" d="M 24 11 C 20.6863 11 18 13.6864 18 17 C 18 20.3136 20.6863 23 24 23 C 27.3137 23 30 20.3136 30 17 C 30 13.6864 27.3137 11 24 11 z M 24 25 C 13 25.0068 13 33.001953 13 33.001953 L 13 35 L 35 35 L 35 33.001953 C 35 33.001953 35 24.9937 24 25 z"/>
 <path opacity=".2" d="m4.0117 24.5c-0.0041 0.167-0.0117 0.332-0.0117 0.5 0 11.08 8.92 20 20 20s20-8.92 20-20c0-0.168-0.008-0.333-0.012-0.5-0.264 10.846-9.076 19.5-19.988 19.5s-19.724-8.654-19.988-19.5z"/>
 <circle style="opacity:0.2" cx="36" cy="37" r="11"/>
 <circle style="fill:#a559d6" cx="36" cy="36" r="11"/>
 <path style="fill:#ffffff" d="m 30,39.327 0,2.673 2.6728,0 6.7507,-6.7507 -2.6728,-2.6728 z m 11.788,-6.4337 c 0.28271,-0.28271 0.28271,-0.72818 0,-1.0109 l -1.6705,-1.6705 c -0.28271,-0.28271 -0.72818,-0.28271 -1.0109,0 l -1.3964,1.405 2.6728,2.6728 z"/>
</svg>
